X:3155
T: Springlek från Lima efter Fjös Erik
R: Springlek
S: Utlärd av Perjos Lars Halvarsson
Z: Karin Arén
M: 3/4
L: 1/8
K: A
v(A2 |: d2) (ef) f>a | a2 ga/g/ f>e | [A,2D2d2] (ef) f>a |1 g2 a4 :|2 g2 a4 |: 
=g2 (fd) e>c | (A<c) (B=G) A>c | (e<=g) (f>d) e>d |1 c2 (A2 A)e/f/ :|2 c2 d4 |]
(:musicend:)



(:music:)
